!!!COM: Martinů, Bohuslav (Jan)
!!!OTL: Suite Concertante for Violin and Orchestra
!!!OMV:
!!!example: 493
!!!work: Mau-58
**kern	**kern	**dynam	**kern	**dynam
*part2	*part2	*part2	*part1	*part1
*staff3	*staff2	*	*staff1	*
*I"Piano	*	*	*I"Violin	*
*I'Pno.	*	*	*I'Vln.	*
*clefF4	*clefG2	*	*clefG2	*
*k[]	*k[]	*	*k[]	*
*C:	*C:	*	*C:	*
*M3/8	*M3/8	*	*M3/8	*
*MM121	*MM121	*	*MM121	*
=1	=	=	=	=
8r	8r	.	8ee-X'	.
[16EE-XLL [16BB-X [16G	8gg 8ccc 8eee 8ggg	.	8r	.
16EE-] 16BB-] 16G] 16e-X	.	.	.	.
16d	8r	.	16ff-XLL	.
16e-JJ	.	.	16ee-JJ	.
=2	=2	=2	=2	=2
8E-X 8G 8B-X 8d-X	8ccL 8ee 8gg	.	16ee-XLL	.
.	.	.	(16dd'J	.
8r	16e-XL	.	8dd')	.
.	16f-X	.	.	.
8r	16e-	.	(8ffnJ	.
.	16f-JJ	.	.	.
=3	=3	=3	=3	=3
8E-X 8G 8B-X 8d-X	8fnL 8cc 8een 8gg	.	8dd-XL)	.
8r	16fL	.	(16ff-XL	.
.	16g-X	.	16ee-X)	.
8r	16f	.	16ee-	.
.	16g-JJ	.	16ddnJJ	.
=4	=4	=4	=4	=4
8E-X 8G 8B-X 8d-X	8gnL 8cc 8ee 8ggn	.	16ddLL	.
.	.	.	16cc#X	.
8r	16aL	.	(16aa	.
.	16b-X	.	16aa-X)	.
8r	16a	.	16aa-'	.
.	16b-JJ	.	16gg'JJ	.
=5	=5	=5	=5	=5
8E-X 8G 8B-X 8d-X	8aL 8cc 8ee 8gg	.	8gg'L	.
8r	16b-XL	.	(8bb-X'	.
.	16cc	.	.	.
8r	16b-	.	8ff#X'J)	.
.	16ccJJ	.	.	.
=6	=6	=6	=6	=6
8E-X 8G 8B-X 8d-X	8ccL 8dd-X 8ee 8gg	.	(16aaLL	.
.	.	.	16aa-X)	.
8r	16dd-L	.	(16aa-'	.
.	16ee-X	.	16gg'J)	.
8r	16dd-	.	8bb-XJ	.
.	16ee-JJ	.	.	.
=7	=7	=7	=7	=7
8E-X 8G 8B-X 8d-X	8ccL 8een 8bb-X	.	16ff#XLL	.
.	.	.	16gg	<
8r	16dd#XL	<	(16eee-X	.
.	16ee	.	16ddd)	.
8r	16dd#	.	16ddd	.
.	16eeJJ	.	16ccc#XJJ	[
==	==	==	==	==
*-	*-	*-	*-	*-
!!!CDT: 1890/12/08-1959/08/28
!!!CBL: Polička, Bohemia
!!!CDL: Liestal, Switzerland
!!!CNT: Czech
!!!AGN: Orchestral; Concerto
!!!MCN: Golschmann, V.
!!!MDT: 1945/12/28
!!!MGN: St.Louis Symphony Orchestra
!!!MLC: St. Louis, Missouri, United States of America
!!!MPD: 1945
!!!MPN: Dushkin, Samuel
!!!ODT: 1945
!!!PDT: 1955
!!!excerpt-start-measure: unknown
!!!excerpt-end-measure: unknown
!!!excerpt-start-time: unknown
!!!excerpt-end-time: unknown
!!!EEV: 2020/01/17
!!!system-decoration: s1{(s2,s3)}
!!!ONB: Converted from MusicXML on 2020/01/17
